svgs/sharp-light/bus.svg

<svg xmlns="http://www.w3.org/2000/svg" viewBox="0 0 576 512"><!--! Font Awesome Pro 6.6.0 by @fontawesome - https://fontawesome.com License - https://fontawesome.com/license (Commercial License) Copyright 2024 Fonticons, Inc. --><path d="M96 91.5c6.2-8.3 21.4-22 49.6-34.3C177.1 43.5 223.5 32 288 32c131.4 0 179.1 40.8 192 59.4l0 36.6-176 0-32 0L96 128l0-36.5zM272 160l0 96L96 256l0-96 176 0zm32 96l0-96 176 0 0 96-176 0zm0 32l176 0 0 128-32 0-80.8 0L128 416l-32 0 0-128 176 0 32 0zM64 128l0 32 0 96 0 32 0 144 0 16 16 0 16 0 0 48 0 16 32 0 0-16 0-48 239.2 0 80.8 0 0 48 0 16 32 0 0-16 0-48 16 0 16 0 0-16 0-144 0-32 0-96 0-32 0-41.2 0-4.2L510 79C492.8 48.3 433.6 0 288 0C219.8 0 168.8 12.1 132.8 27.9C97.3 43.4 75 63 66 79l-2 3.6 0 4.2L64 128zM184 352a24 24 0 1 0 -48 0 24 24 0 1 0 48 0zm232 24a24 24 0 1 0 0-48 24 24 0 1 0 0 48zM240 64l-16 0 0 32 16 0 96 0 16 0 0-32-16 0-96 0zM32 144l0-16L0 128l0 16 0 96 0 16 32 0 0-16 0-96zm544 0l0-16-32 0 0 16 0 96 0 16 32 0 0-16 0-96z"/></svg>

<svg xmlns="http://www.w3.org/2000/svg" viewBox="0 0 576 512"><!--! Font Awesome Pro 6.4.2 by @fontawesome - https://fontawesome.com License - https://fontawesome.com/license (Commercial License) Copyright 2023 Fonticons, Inc. --><path d="M96 91.5c6.2-8.3 21.4-22 49.6-34.3C177.1 43.5 223.5 32 288 32c131.4 0 179.1 40.8 192 59.4V128H304 272 96V91.5zM272 160v96H96V160H272zm32 96V160H480v96H304zm0 32H480V416H448 367.2 128 96V288H272h32zM64 128v32 96 32V432v16H80 96v48 16h32V496 448H367.2 448v48 16h32V496 448h16 16V432 288 256 160 128 86.8 82.6L510 79C492.8 48.3 433.6 0 288 0C219.8 0 168.8 12.1 132.8 27.9C97.3 43.4 75 63 66 79l-2 3.6v4.2V128zM184 352a24 24 0 1 0 -48 0 24 24 0 1 0 48 0zm232 24a24 24 0 1 0 0-48 24 24 0 1 0 0 48zM240 64H224V96h16 96 16V64H336 240zM32 144V128H0v16 96 16H32V240 144zm544 0V128H544v16 96 16h32V240 144z"/></svg>
